!!!OTL: 474. Treubruch.
!!!ODT: 1880
!!!ARE: Europa, Mitteleuropa, Deutschland, Nassau
!!!SCT: B0474
!!!TXL: @@DE
!!!YEM: Copyright 1995, estate of Helmut Schaffrath.
**kern	**text
*ICvox	*
*Ivox	*
*clefG2	*
*M4/4	*
*met(c)	*
*k[b-e-a-]	*
*E-:	*
!LO:TX:a:t=Ernſt.	!
{8b-	Theu-
8g	-er-
=1	=1
4.e-	-ſter,
8b-	du
8b-	brichſt
8b-	den
8.cc	Schwur
16b-	der
=2	=2
8b-L	Treu-
8a-J	.
4f	-e,
8r}	.
{8a-	du
8f	lieb-
8d	-teſt
=3	=3
4.b-	mich
8b-	ſchon
8b-	lan-
8b-	-ge
8.cc	Ʒeit
16b-	nicht
=4	=4
2g	mehr
4r}	.
{8e-	doch
8e-	je-
=5	=5
4.cc	-doch
8cc	trifft
8ee-	ſi-
8ee-	-cher
8dd	dich
8cc	die
=6	=6
8ccL	Reu-
8b-J	.
4b-	-e,
4r}	.
{8b-	dann
8ee-	ſchlägt
=7	=7
4.dd	dir
8cc	dein
8b-	Herʒ
8b-	vom
8a-	Vorwurf
8d	.
=8	=8
2e-	ſchwer.
4r}	.
==	==
!!!AGN: Liebes - Lied, Leid, Klage
!!!GTL: Liebeslieder - Liebesleid
!!!ONB: ESAC (Essen Associative Code) Database: BOEHME
!!!AMT: simple quadruple
!!!AIN: vox
!!!EED: Helmut Schaffrath
!!!EEV: 1.0
!!Aus dem Naſſauiſchen (Genſungen) 1880.
!!@@COMMENT:"Mit dieſem überaus ſentimentalen Liede vergl. das inhaltsverwandte Nr. 485."
!!@@END:
!!!URL-scan: https://archive.org/details/BoehmeVtLieder1895/page/n381/mode/2up
!!!ENC: Anna Maria Matuszewska
!!!EEV: 2024/10/07
*-	*-
